X:0
T:Böl-Olle
R:schottis
H:efter Tros Olof Olsson
O:Dalarna
O:Sweden
M:C|
K:Am fgp=1
ABcd e2e2|{ef}e2dc A4|BcBG B2B2|ABcB A4:|
K:C
|:G2ed c2GE|F2F2 FAdc|B2B2 BGed|c2c2 c4:|
